X: 87
T: FOR IRELAND I'D NOT TELL HER NAME
B: O'Neill's 87
M: 3/4
L: 1/8
Z: Transcribed by John Chambers <jc@trillian.mit.edu>
N: "With expression"
N: Three-bar phrases.
K:Em
G>A \
| B2 E2 (EF) | G2 A2 (BA) | B2 (EG) \
| F2 E2 ((3DEF) | A2 F2 (EF) | D4 (FA) |
| B2 E2 (EF) | G2 A2 (BA) | B2 (EG) \
| F2 E2 (DE) | F2 E2 E2 | HE4 ||
|| (Bc) \
| d2 e2 ((3dBA) | G2 B2 d2 | e4 ((3fge) \
| d2 e2 (BA) | (GF) (EF) (AF) | D4 (FA) |
| B2 E2 (EF) | G2 A2 (BA) | B2 (EG) \
| F2 E2 (DE) | F2 E2 E2 | HE4 ||


